X: 296
T:Lord of the Isles
R:strathspey
M:4/4
L:1/8
K:G
d/|g<g d>B G2 G>F|E<A A>G F<D D>f|g<g d>B G2 G>F|E>A G/2F/2E/2D/2 G2 G>f|
g<g d>B G2 G>F|E<A A>G F<D D>f|g<g d>B G2 G>F|E>A G/2F/2E/2D/2 G2 G3/2|
|:B/|df e>d c>B|c<A a>g f<d d>f|g<g d>B c>d B>G|E>A G/2F/2E/2D/2 G2 G3/2:|
